!!!!SEGMENT: pl-kk--kk-i-34--001-005_anonim--missa-agnus-dei.krn
!!!cenid: 16xx:1331
!!!COM: Anonim
!!!COM-rism: pe30004985
!!!CDT:
!!!CNT:
!!!OTL: Missa – Agnus Dei
!!!PDT:
!!!AGN: Sacred; Mass
!!!SMS-siglum: PL-Kk
!!!SMS-shelfmark: Kk.I.34
!!!NIFC-rismID: 1001156614
!!!URL-scan: http://repozytorium.nifc.pl/skany/pl-kk-nut--i-34
!!!ONB-nifc: UWAGA: wg RISM obsada A, T (2), B. W zbiorze: 001 (Missa) – 1. Kyrie, 2. Et in terra, 3. Patrem, 4. Sanctus, 5. Agnus Dei; 002 – Rorate caeli, 003 – Rorate caeli
!!!SMS-variant: [Basso]: PL-Kk KK.I.34:0016
!!!SMS-altvar: Baſso.: PL-Kk KK.I.34:0020
**kern	**text	**kern	**text	**kern	**text	**kern	**text
*part4	*part4	*part3	*part3	*part2	*part2	*part1	*part1
*staff4	*staff4	*staff3	*staff3	*staff2	*staff2	*staff1	*staff1
*I"[Basso]	*	*I"[Tenore]	*	*I"[Alto]	*	*I"[Soprano]	*
*I'B	*	*I'T	*	*I'A	*	*I'S	*
*clefF4	*	*clefC4	*	*clefC3	*	*clefC1	*
*	*	*	*	*	*	*Trd0c0	*
*k[b-]	*	*k[b-]	*	*k[b-]	*	*k[b-]	*
*M2/1	*	*M2/1	*	*M2/1	*	*M2/1	*
*met(C|)	*	*met(C|)	*	*met(C|)	*	*met(C|)	*
=1-	=1-	=1-	=1-	=1-	=1-	=1-	=1-
0r	.	4r	.	2g\	A-	4dd\	A-
.	.	8B-\	A-	.	.	4dd\	-gnus
.	.	8A/	-gn(us)	.	.	.	.
.	.	4G/	DE-	(4e-X\	-gn(us)	4dd\	De-
.	.	8G/	-i	4g\)	.	8cc\	-i
!	!	!	!	!	!	!LO:TX:t=P:problem:kreska pseudotaktowa	!
.	.	8G/	q[ui]	.	.	8cc\	qui
!	!	!LO:LB:g=original	!	!	!	!	!
.	.	4F/	tol-	4a\	De-	2dd\	tol-
.	.	2B-\	-lis	8d\	-i	.	.
.	.	.	.	8d\	qui	.	.
!	!	!	!	!	!	!LO:TX:t=P:problem:kreska pseudotaktowa	!
.	.	.	.	8g\L	tol-	2een\	-lis
.	.	.	.	16f\L	.	.	.
.	.	.	.	16eny\JJ	.	.	.
!	!	!LO:TX:t=P:problem:kreska pseudotaktowa	!	!	!	!	!
.	.	2A/	pe(c)-	8d\L	.	.	.
!	!	!	!	!LO:TX:t=P:problem:kreska pseudotaktowa	!	!	!
.	.	.	.	8e\J	.	.	.
=2-	=2-	=2-	=2-	=2-	=2-	=2-	=2-
4r	.	.	.	2f\	.	4dd\	pec-
8D/	A-	8f\	ca-	.	.	4a\	.
8C/	-gnus	8e\	.	.	.	.	.
4BB-/	De-	4d\	-ta	8f\	.	1b-	-ca-
.	.	.	.	8e\	-lis	.	.
8BB-/	-i	8d\	mun-	2d\	pec-	.	.
!LO:TX:t=P:problem:kreska pseudotaktowa	!	!LO:TX:t=P:problem:kreska pseudotaktowa	!	!	!	!	!
8AA/	qui	8c\	-di	.	.	.	.
2GG/	tol-	8B-\L	pec-	.	.	.	.
.	.	8c\J	.	.	.	.	.
.	.	2d\	-ca-	8d\L	-ca-	.	.
.	.	.	.	8e\J	.	.	.
!	!	!	!	!	!	!LO:TX:t=P:problem:kreska pseudotaktowa	!
4FF/	-lis	.	.	4.f\	ca-	2dd\	-ta
!LO:TX:t=P:problem:kreska pseudotaktowa	!	!LO:TX:t=P:problem:kreska pseudotaktowa	!	!	!	!	!
4FF/	pec-	4A/	.	.	.	.	.
!	!	!	!	!LO:TX:t=P:problem:kreska pseudotaktowa	!	!	!
.	.	.	.	8f\	-te	.	.
=3-	=3-	=3-	=3-	=3-	=3-	=3-	=3-
1GG	-ca-	4.B-\	.	1d	mun-	2b-\	mun-
.	.	8B-\	-ta	.	.	.	.
!	!	!LO:TX:t=P:problem:kreska pseudotaktowa	!	!	!	!	!
.	.	2B-\	Mun-	.	.	4a\	.
!	!	!	!	!	!	!LO:TX:t=P:problem:kreska pseudotaktowa	!
.	.	.	.	.	.	4g\	.
2D/	-ta	1d	-di	4d\	di	1a	-di
*	*	*	*	*	*ij	*	*
.	.	.	.	4f\	pec-	.	.
!LO:TX:t=P:problem:kreska pseudotaktowa	!	!	!	!LO:TX:t=P:problem:kreska pseudotaktowa:między nutą a kropką	!	!	!
2r	.	.	.	2.a\	-ca-	.	.
=4-	=4-	=4-	=4-	=4-	=4-	=4-	=4-
1r	.	2r	.	.	.	1r	.
.	.	.	.	4g\	-ta	.	.
.	.	4r	.	4.g\	mun-	.	.
.	.	4.d\	Mi-	.	.	.	.
!	!	!	!	!LO:TX:a:t=P:problem:♯ above	!	!	!
!	!	!	!	!LO:TX:t=P:problem:kreska pseudotaktowa	!	!	!
.	.	.	.	8f#X\	.	.	.
!	!	!	!	!LO:SIC:v:t=custos g	!	!	!
4r	.	.	.	4g\	-di	4r	.
*	*	*	*	*	*Xij	*	*
.	.	8c\	-ſe-	.	.	.	.
!	!	!	!	!LO:LB:g=original	!	!	!
8.G\	Mi-	4.B-\	-re-	4.g\	mi-	8.b-\	mi-
16F\	-ſe-	.	.	.	.	16a\	-ſe-
!	!	!	!	!	!	!LO:TX:t=P:problem:kreska pseudotaktowa:między nutą a kropką	!
8.B-\	-re-	.	.	.	.	2.g/	-re-
.	.	16c\LL	.	8fny\	-ſe-	.	.
16A\	-re	16d\JJ	.	.	.	.	.
*	*ij	*	*	*	*	*	*
!LO:TX:t=P:problem:kreska pseudotaktowa:między nutą a kropką	!	!LO:TX:t=P:problem:kreska pseudotaktowa:między nutą a kropką	!	!LO:TX:t=P:problem:kreska pseudotaktowa	!	!	!
4.G\	Mi-	4.e-X\	.	4.e-X\	-re-	.	.
=5-	=5-	=5-	=5-	=5-	=5-	=5-	=5-
8G\	-ſe-	8d\	.	8f\	-re	.	.
*	*	*	*	*	*ij	*	*
8c\	-re-	4c\	.	4.g\	mi-	4g/	-re
8B-\	-re	.	.	.	.	.	.
!	!	!	!	!	!	!LO:TX:t=P:problem:kreska pseudotaktowa	!
8A\	Mi-	4c\	-re	.	.	2a\	no-
8A\	-ſe-	.	.	8g\	-ſe-	.	.
!	!	!	!	!LO:TX:t=P:problem:kreska pseudotaktowa	!	!	!
8.F\	-re-	8F/	mi-	4f\	-re-	.	.
!	!	!LO:TX:t=P:problem:kreska pseudotaktowa	!	!	!	!	!
.	.	8F/	-ſe-	.	.	.	.
!LO:TX:t=P:problem:kreska pseudotaktowa	!	!	!	!	!	!	!
16F\	-re	.	.	.	.	.	.
*	*Xij	*	*	*	*	*	*
!LO:LB:g=original	!	!	!	!	!	!	!
4B-X\	no-	4B-\	-re-	4f\	-re	2g/	-bis
*	*	*	*	*	*Xij	*	*
4cn\	.	4c\	-re	4eny\	no-	.	.
*	*	*	*	*	*	*	*ij
!	!	!LO:TX:t=P:problem:kreska pseudotaktowa	!	!	!	!	!
!LO:TX:t=P:problem:kreska pseudotaktowa	!	!LO:SIC:v:t=custos D	!	!LO:TX:t=P:problem:kreska pseudotaktowa	!	!	!
2F\	-bis	2F/	no-	2f\	-biſ	4a\	mi-
!	!	!	!	!	!	!LO:TX:t=P:problem:kreska pseudotaktowa	!
!	!	!	!	!	!	!LO:SIC:v:t=custos f	!
.	.	.	.	.	.	4g/	-ſe-
!	!	!LO:LB:g=original	!	!	!	!LO:LB:g=original	!
=6-	=6-	=6-	=6-	=6-	=6-	=6-	=6-
1rA	.	4D/	.	2r	.	4f/	-re-
.	.	4E-X/	.	.	.	2g/	-re
.	.	4C/	.	4r	.	.	.
!	!	!LO:TX:t=P:problem:kreska pseudotaktowa	!	!	!	!LO:TX:t=P:problem:kreska pseudotaktowa	!
.	.	4F/	.	8.f\	Mi-	4f/	no-
!	!	!	!	!LO:TX:a:t=P:problem:♭ above	!	!	!
.	.	.	.	16e-X\	-ſe-	.	.
2rF	.	4B-X\	-biſ	4d\	-re-	4f/	-bis
*	*	*	*ij	*	*	*	*Xij
.	.	8B-\	mi-	4d\	-re	8ff\	Mi-
.	.	8c\	-ſe-	.	.	8ee\	-ſe-
!	!	!	!	!	!	!LO:TX:t=P:problem:kreska pseudotaktowa	!
4.B-\	Mi-	4.d\	-re-	2r	.	2dd\	-re-
!LO:TX:t=P:problem:kreska pseudotaktowa	!	!LO:TX:t=P:problem:kreska pseudotaktowa	!	!	!	!	!
8A\	-ſe-	8c\	-re	.	.	.	.
=7-	=7-	=7-	=7-	=7-	=7-	=7-	=7-
8G\L	-re-	2.B-\	no-	4r	.	8dd\L	.
8F\J	.	.	.	.	.	16ee\L	.
.	.	.	.	.	.	16ff\JJ	.
*	*	*	*	*	*ij	*	*
8E-X\L	-re	.	.	8.g\	Mi-	8gg\	.
8D\J	.	.	.	.	.	8gg\	-re
.	.	.	.	16f\	-ſe-	.	.
*	*ij	*	*	*	*	*	*
4C/	Mi-	.	.	8e-X\	-re-	4r	.
.	.	.	.	8e-\	-re	.	.
!LO:TX:t=P:problem:kreska pseudotaktowa	!	!	!	!	!	!	!
4FF/	-ſe-	4A\	.	4.f\	no-	8.ff\	Mi-
!	!	!	!	!	!	!LO:TX:t=P:problem:kreska pseudotaktowa	!
.	.	.	.	.	.	16ee\	-ſe-
4.BB-/	-re-	2B-\	-biſ	.	.	4dd\	-re-
*	*	*	*Xij	*	*	*	*
.	.	.	.	8f\	-biſ	.	.
.	.	.	.	4.g\	Mi-	4dd\	-re
8BB-/	-re	.	.	.	.	.	.
*	*Xij	*	*	*	*	*	*
4C/	no-	4r	.	.	.	4ee-X\	no-
.	.	.	.	8g\	-ſe-	.	.
!LO:TX:t=P:problem:kreska pseudotaktowa	!	!	!	!	!	!LO:TX:t=P:problem:kreska pseudotaktowa	!
4D/	.	8d\	Mi-	4f#X\	-re-	4dd\	.
!	!	!LO:TX:t=P:problem:kreska pseudotaktowa	!	!	!	!	!
.	.	8c\	-ſe-	.	.	.	.
=8-	=8-	=8-	=8-	=8-	=8-	=8-	=8-
4GG/	-bis	8B-\L	-re-	4g\	-re	4dd\	-bis
.	.	8A\J	.	.	.	.	.
8G\	Mi-	2G/	-re	4.g\	no-	8dd\	Mi-
8F\	-ſe-	.	.	.	.	8dd\	-ſe-
8Eny\	-re-	.	.	.	.	4.ee-y\	-re-
8E\	-re	.	.	8fny\	.	.	.
*	*ij	*	*ij	*	*	*	*
!	!	!	!	!LO:TX:a:t=P:problem:♭ above	!	!	!
8A\	Mi-	8c\	mi-	8e-X\	.	.	.
!LO:TX:t=P:problem:kreska pseudotaktowa	!	!LO:TX:t=P:problem:kreska pseudotaktowa	!	!	!	!LO:TX:t=P:problem:kreska pseudotaktowa	!
8G\	-ſe-	8B-\	-ſe-	8e-\	-biſ	8ee-\	-re
*	*	*	*	*	*Xij	*	*
!	!	!	!	!LO:PB:g=original	!	!	!
8F#X\	-re-	4A/	-re-	4r	.	2dd\	no-
8F#\	-re	.	.	.	.	.	.
*	*Xij	*	*	*	*	*	*
4G\	no-	8B-\	-re	4.d\	no-	.	.
*	*	*	*Xij	*	*	*	*
.	.	8c\	.	.	.	.	.
!LO:TX:t=P:problem:kreska pseudotaktowa	!	!LO:TX:t=P:problem:kreska pseudotaktowa	!	!	!	!LO:TX:t=P:problem:kreska pseudotaktowa	!
2D/	.	2d\	no-	.	.	2dd\	-biſ
.	.	.	.	8eny\	.	.	.
!	!	!	!	!LO:TX:a:t=P:problem:♯ above	!	!	!
.	.	.	.	8f#X\L	.	.	.
.	.	.	.	16g\L	.	.	.
.	.	.	.	16a\JJ	.	.	.
=9-	=9-	=9-	=9-	=9-	=9-	=9-	=9-
!	!	!LO:TX:a:t=P:problem:♯ above	!	!	!	!	!
!	!	!LO:N:acc=#	!	!LO:TX:t=P:problem:kreska pseudotaktowa	!	!	!
1GG	-bis	1Bn	-biſ	1g	-bis	1ra	.
!	!	!LO:TX:t=P:problem:pominięta wartość [2r]	!	!	!	!LO:LB:g=original	!
4G\	A-	2ryy	.	4.g\	a-	00r	.
4G\	-gn(us)	.	.	.	.	.	.
.	.	.	.	8g\	-gn(us)	.	.
!LO:LB:g=original	!	!	!	!	!	!	!
4C/	De-	4c\	A-	4e\	De-	.	.
!LO:TX:t=P:problem:kreska pseudotaktowa	!	!	!	!LO:TX:t=P:problem:kreska pseudotaktowa	!	!	!
4C/	-i	4c\	-gn(us)	4e\	-i	.	.
=10-	=10-	=10-	=10-	=10-	=10-	=10-	=10-
*	*	*	*	*	*ij	*	*
4Fny\	qui	4A/	De-	4.fny\	a-	.	.
!	!	!LO:TX:t=P:problem:kreska pseudotaktowa	!	!	!	!	!
4F\	tol-	4A/	-i	.	.	.	.
.	.	.	.	8e\	-gnus	.	.
4BB-/	-lis	2.B-y\	qui	4d\	De-	.	.
!LO:TX:t=P:problem:kreska pseudotaktowa	!	!	!	!LO:TX:t=P:problem:kreska pseudotaktowa	!	!	!
4BB-/	pec-	.	.	4d\	-i	.	.
*	*	*	*	*	*Xij	*	*
4F\	.	.	.	2c/	qui	.	.
4F\	-ca-	2A/	tol-	.	.	.	.
!LO:TX:t=P:problem:kreska pseudotaktowa	!	!	!	!	!	!	!
2G\	-ta	.	.	2B-/	tol-	.	.
.	.	2G/	.	.	.	.	.
=11-	=11-	=11-	=11-	=11-	=11-	=11-	=11-
!	!	!	!	!LO:TX:t=P:problem:kreska pseudotaktowa	!	!	!
2D/	mun-	.	.	1A	.	.	.
.	.	8F/L	.	.	.	.	.
.	.	8Eny/J	.	.	.	.	.
!	!	!LO:PB:g=original	!	!	!	!	!
2D/	-di	2F/	.	.	.	.	.
4BBn/	qui	4G/	-lis	2G/	-lis	00r	.
!	!	!LO:TX:t=P:problem:kreska pseudotaktowa	!	!	!	!	!
2C/	tol-	4G/	pec-	.	.	.	.
.	.	4d\	-ca-	4r	.	.	.
*	*	*	*	*	*ij	*	*
8BBn/L	.	8c\L	.	2g\	qui	.	.
!LO:TX:t=P:problem:kreska pseudotaktowa	!	!	!	!	!	!	!
8C/J	.	8B-\J	.	.	.	.	.
=12-	=12-	=12-	=12-	=12-	=12-	=12-	=12-
!	!	!LO:TX:t=P:problem:kreska pseudotaktowa	!	!	!	!	!
2D/	-lis	2A/	.	.	.	.	.
.	.	.	.	4f\	tol-	.	.
4E\	pec-	2c\	ta	4.e\	-lis	.	.
*	*	*	*	*	*Xij	*	*
!LO:TX:t=P:problem:kreska pseudotaktowa	!	!	!	!	!	!	!
4F\	.	.	.	.	.	.	.
!	!	!	!	!LO:TX:t=P:problem:kreska pseudotaktowa	!	!	!
.	.	.	.	8e\	pec-	.	.
!	!	!LO:TX:t=P:problem:kreska pseudotaktowa	!	!	!	!	!
2G\	.	2B-\	mun-	2d\	-ca-	.	.
!	!	!	!	!LO:TX:t=P:problem:kreska pseudotaktowa:między nutą a kropką	!	!	!
2F\	.	2A/	.	2.d\	-ta	.	.
=13-	=13-	=13-	=13-	=13-	=13-	=13-	=13-
!	!	!LO:TX:t=P:problem:kreska pseudotaktowa	!	!	!	!	!
2.E-X\	-ca-	2G/	-di	.	.	.	.
*	*	*	*	*	*ij	*	*
!	!	!	!	!LO:TX:b:t=P:problem:♯ below	!	!	!
.	.	.	.	4c#X/	pec-	.	.
*	*	*	*ij	*	*	*	*
!	!	!	!	!LO:TX:t=P:problem:kreska pseudotaktowa:między nutą a kropką	!	!	!
.	.	8G/L	pec-	2.c#/	-ca-	.	.
.	.	16A/L	.	.	.	.	.
.	.	16B-/JJ	.	.	.	.	.
!LO:TX:t=P:problem:kreska pseudotaktowa	!	!	!	!	!	!	!
4E-\	-ta	8A/L	-ca-	.	.	.	.
.	.	8G/J	.	.	.	.	.
1D	mun-	4F#X/	-ta	.	.	1r	.
.	.	2G/	mun-	4B-/	-ta	.	.
*	*	*	*	*	*Xij	*	*
!	!	!	!	!LO:TX:t=P:problem:kreska pseudotaktowa	!	!	!
.	.	.	.	2A/	mun-	.	.
.	.	4F#X/	.	.	.	.	.
!	!	!	!	!LO:LB:g=original	!	!	!
=14-	=14-	=14-	=14-	=14-	=14-	=14-	=14-
4GG/	-di	4G/	-di	4G/	-di	4r	.
*	*	*	*Xij	*	*	*	*
8G\	do-	8B-\	do-	2g\	do-	4dd\	Do-
!	!	!LO:TX:t=P:problem:kreska pseudotaktowa	!	!	!	!	!
!	!	!LO:N:acc=#	!	!	!	!	!
8G\	-na	8Bn\	-na	.	.	.	.
!	!	!	!	!	!	!LO:TX:t=P:problem:kreska pseudotaktowa	!
4C/	no-	2.c\	no-	.	.	2eeny\	-na
!LO:TX:t=P:problem:kreska pseudotaktowa	!	!	!	!LO:TX:t=P:problem:kreska pseudotaktowa	!	!	!
4C/	-bis	.	.	4g\	-na	.	.
4.F\	do-	.	.	4.a\	no-	2ff\	no-
.	.	4c\	-bis	.	.	.	.
8F\	-na	.	.	8a\	-biſ	.	.
!LO:LB:g=original	!	!	!	!LO:TX:t=P:problem:kreska pseudotaktowa:między nutą a kropką	!	!	!
4.BB-y/	no-	2B-X\	pa-	2.f\	pa-	2dd\	-biſ
!LO:TX:t=P:problem:kreska pseudotaktowa	!	!	!	!	!	!	!
8BB-/	-bis	.	.	.	.	.	.
=15-	=15-	=15-	=15-	=15-	=15-	=15-	=15-
4F\	Do-	4A/	.	.	.	2cc\	pa-
!	!	!LO:TX:t=P:problem:kreska pseudotaktowa	!	!	!	!	!
4C/	.	4G/	.	4e\	-ce(m)	.	.
*	*	*	*	*	*ij	*	*
!LO:TX:t=P:problem:kreska pseudotaktowa	!	!	!	!	!	!LO:TX:t=P:problem:kreska pseudotaktowa	!
2G\	-na	2B-\	-ce(m)	2.g\	do-	2b-\	.
1D	pa-	2.d\	do-	.	.	1a	-ce(m)
!	!	!	!	!LO:TX:a:t=P:problem:♯ above	!	!	!
.	.	.	.	8f#X\L	-na	.	.
!	!	!	!	!LO:TX:t=P:problem:kreska pseudotaktowa	!	!	!
.	.	.	.	8e\J	.	.	.
.	.	.	.	4f#X\	no-	.	.
.	.	4d\	-na	4f#\	-biſ	.	.
!	!	!LO:LB:g=original	!	!	!	!	!
=16-	=16-	=16-	=16-	=16-	=16-	=16-	=16-
4GG/	-cem	4.d\	no-	4g\	pa-	8b-\	do-
.	.	.	.	.	.	8cc\	-na
*	*ij	*	*	*	*	*	*
!	!	!	!	!LO:N:acc=-	!	!	!
!	!	!	!	!LO:TX:a:t=P:problem:♭ above	!	!	!
!	!	!	!	!LO:TX:t=P:problem:kreska pseudotaktowa	!	!	!
4.G\	do-	.	.	4gn\	-cem	(2dd\	no-
*	*	*	*	*	*Xij	*	*
.	.	8Fny/	.	.	.	.	.
!	!	!LO:TX:t=P:problem:kreska pseudotaktowa	!	!	!	!	!
.	.	2A/	biſ	4r	.	.	.
8G\	-na	.	.	.	.	.	.
8F\	no-	.	.	4d\	do-	4a\)	.
!LO:TX:t=P:problem:kreska pseudotaktowa	!	!	!	!	!	!	!
8Eny\	-bis	.	.	.	.	.	.
4.D/	do-	2A/	pa-	4.d\	-na	2a\	-bis
!	!	!	!	!LO:TX:t=P:problem:kreska pseudotaktowa	!	!	!
16C/LL	.	.	.	8e\	.	.	.
16BB-/JJ	.	.	.	.	.	.	.
4AA/	.	2A/	-cem	2.fny\	no-	8a\	do-
.	.	.	.	.	.	8b-\	-na
!	!	!	!	!	!	!LO:TX:t=P:problem:kreska pseudotaktowa	!
2A\	-na	.	.	.	.	4cc\	no-
=17-	=17-	=17-	=17-	=17-	=17-	=17-	=17-
*	*	*	*ij	*	*	*	*
.	.	4d\	do-	.	.	4f/	-biſ
2G\	pa-	4d\	-na	4g\	.	4b-\	do-
!	!	!	!	!	!	!LO:TX:t=P:problem:kreska pseudotaktowa	!
.	.	4d\	no-	2a\	.	2dd\	-na
!LO:TX:t=P:problem:kreska pseudotaktowa	!	!LO:TX:t=P:problem:kreska pseudotaktowa	!	!	!	!	!
!LO:TX:a:t=P:problem:# above	!	!	!	!	!	!	!
4F#X\	.	4d\	-biſ	.	.	.	.
!	!	!LO:N:acc=#	!	!	!	!	!
4G\	-cem	4Bn\	pa-	4g\	-bis	4dd\	no-
*	*Xij	*	*	*	*ij	*	*
2G\	do-	2B\	-cem	2g\	do-	2dd\	-biſ
*	*	*	*Xij	*	*	*	*
4G\	-na	8B\	do-	4g\	-na	8dd\	do-
!	!	!	!	!	!	!LO:TX:t=P:problem:kreska pseudotaktowa	!
.	.	8B\	-na	.	.	8dd\	-na
=18-	=18-	=18-	=18-	=18-	=18-	=18-	=18-
2C/	no-	2c\	no-	2g\	no-	2ee-X\	no-
!LO:TX:t=P:problem:kreska pseudotaktowa	!	!LO:TX:t=P:problem:kreska pseudotaktowa	!	!	!	!LO:TX:t=P:problem:kreska pseudotaktowa	!
2BB-/	-bis	2d\	-biſ	2g\	-bis	2dd\	-biſ
*	*	*	*	*	*Xij	*	*
1C	pa-	1e-X	Pa-	1g	pa-	4dd\	pa-
.	.	.	.	.	.	8cc\L	.
.	.	.	.	.	.	8b-\J	.
!	!	!	!	!	!	!LO:LB:g=original	!
!	!	!	!	!	!	!LO:TX:t=P:problem:kreska pseudotaktowa	!
.	.	.	.	.	.	2cc\	.
=19-	=19-	=19-	=19-	=19-	=19-	=19-	=19-
!	!	!	!	!	!	!LO:N:acc=#	!
0GGl;;	-cem	0dl;;	-ce(m)	0gl;;	-cem	0bnl;;	-cem
==	==	==	==	==	==	==	==
*-	*-	*-	*-	*-	*-	*-	*-
!!!system-decoration: [(s1,s2,s3,s4)]
!!!RDF**kern: l = terminal long
!!!ENC: Andrzej Kubiczek
!!!END: 2021-07-28
!!!ENC: Krzysztof Stępień
!!!END: 2021-07-05
